;FLAVOR:Marlin
;TIME:260
;Filament used: 0.0741923m, 0.0771346m
;Layer height: 0.1
;MINX:-51
;MINY:84.805
;MINZ:0.3
;MAXX:185
;MAXY:195.2
;MAXZ:2.3
;Generated with Cura_SteamEngine 4.4.0
T0
M140 S60
M105
M190 S60
M104 S200
M104 T1 S175
M105
M109 S200
M105
M109 T1 S175
M82 ;absolute extrusion mode
M605 S0
G21
G90
M82
M107
G28
T1
G92 E0
G1 E16 F210
G92 E0
T0
G92 E0
G1 E16 F210
G92 E0
M117

G92 E0
T0
G92 E0
G1 F2400 E-6.5
;LAYER_COUNT:1
;LAYER:0
M107
M204 S160
M205 X6 Y6
G1 F300 Z2.3
G0 F2880 X36.067 Y87.528 Z2.3
M204 S100
M205 X4 Y4
;TYPE:SKIRT
G1 F300 Z0.3
G1 F2400 E0
G1 F1200 X36.538 Y87.344 E0.02523
G1 X37.032 Y87.238 E0.05043
G1 X37.466 Y87.209 E0.07214
G1 X37.947 Y87.21 E0.09613
G1 X38.427 Y87.247 E0.12015
G1 X38.856 Y87.313 E0.14181
G1 X41.59 Y87.703 E0.27959
G1 X44.295 Y88.011 E0.41541
G1 X47.003 Y88.241 E0.551
G1 X49.754 Y88.398 E0.68847
G1 X52.505 Y88.477 E0.82578
G1 X55.222 Y88.477 E0.96133
G1 X57.975 Y88.4 E1.09873
G1 X60.69 Y88.247 E1.2344
G1 X63.43 Y88.015 E1.37158
G1 X66.16 Y87.705 E1.50866
G1 X69.401 Y87.242 E1.672
G1 X69.853 Y87.21 E1.6946
G1 X70.34 Y87.21 E1.7189
G1 X70.607 Y87.221 E1.73223
G1 X73.339 Y87.45 E1.86901
G1 X76.061 Y87.602 E2.00502
G1 X78.814 Y87.679 E2.14242
G1 X81.532 Y87.677 E2.27802
G1 X84.283 Y87.598 E2.41533
G1 X87.033 Y87.44 E2.55275
G1 X89.741 Y87.209 E2.68835
G1 X92.441 Y86.9 E2.82393
G1 X95.171 Y86.51 E2.96151
G1 X97.851 Y86.05 E3.09717
G1 X100.377 Y85.523 E3.22591
G1 X100.399 Y85.519 E3.22703
G1 X101.621 Y85.273 E3.28921
G1 X102.148 Y85.212 E3.31568
G1 X102.3 Y85.207 E3.32327
G1 X102.452 Y85.205 E3.33085
G1 X102.79 Y85.21 E3.34772
G1 X103.414 Y85.281 E3.37905
G1 X104.482 Y85.51 E3.43354
G1 X107.202 Y86.054 E3.57193
G1 X109.905 Y86.518 E3.70876
G1 X112.588 Y86.899 E3.84396
G1 X115.353 Y87.212 E3.98278
G1 X118.038 Y87.441 E4.11723
G1 X120.782 Y87.595 E4.25434
G1 X123.533 Y87.672 E4.39164
G1 X126.252 Y87.672 E4.52729
G1 X129.007 Y87.593 E4.6648
G1 X131.752 Y87.438 E4.80196
G1 X133.212 Y87.322 E4.87503
G1 X134.367 Y87.223 E4.93287
G1 X134.635 Y87.211 E4.94625
G1 X135.135 Y87.21 E4.9712
G1 X135.629 Y87.247 E4.99591
G1 X136.057 Y87.313 E5.01752
G1 X138.79 Y87.703 E5.15525
G1 X141.495 Y88.011 E5.29107
G1 X144.203 Y88.241 E5.42666
G1 X146.954 Y88.398 E5.56413
G1 X149.705 Y88.477 E5.70144
G1 X152.422 Y88.477 E5.83699
G1 X155.175 Y88.4 E5.97439
G1 X157.89 Y88.247 E6.11006
G1 X160.63 Y88.015 E6.24725
G1 X163.36 Y87.705 E6.38432
G1 X166.601 Y87.242 E6.54766
G1 X167.046 Y87.21 E6.56992
G1 X167.534 Y87.209 E6.59426
G1 X168.039 Y87.248 E6.61953
G1 X168.53 Y87.366 E6.64473
G1 X168.997 Y87.559 E6.66994
G1 X169.428 Y87.824 E6.69518
G1 X169.811 Y88.154 E6.7204
G1 X170.138 Y88.54 E6.74564
G1 X170.4 Y88.972 E6.77085
G1 X170.591 Y89.44 E6.79606
G1 X170.705 Y89.933 E6.82131
G1 X170.74 Y90.319 E6.84065
G1 X170.749 Y90.64 E6.85667
G1 X170.75 Y90.73 E6.86116
G1 X170.75 Y109.319 E7.78857
G1 X170.74 Y110.035 E7.82429
G1 X170.72 Y110.347 E7.83989
G1 X170.423 Y112.993 E7.97273
G1 X170.194 Y115.689 E8.10771
G1 X170.038 Y118.436 E8.24498
G1 X169.96 Y121.198 E8.38284
G1 X169.95 Y122.882 E8.46685
G1 X169.95 Y122.908 E8.46815
G1 X169.94 Y123.635 E8.50442
G1 X169.893 Y124.138 E8.52963
G1 X169.767 Y124.628 E8.55487
G1 X169.566 Y125.092 E8.5801
G1 X169.294 Y125.518 E8.60531
G1 X168.959 Y125.897 E8.63055
G1 X168.568 Y126.217 E8.65576
G1 X168.132 Y126.472 E8.68096
G1 X167.661 Y126.656 E8.70618
G1 X167.166 Y126.762 E8.73144
G1 X166.83 Y126.79 E8.74826
G1 X166.51 Y126.799 E8.76423
G1 X166.42 Y126.8 E8.76872
G1 X141.965 Y126.8 E9.98879
G1 X139.168 Y126.84 E10.12834
G1 X136.451 Y126.955 E10.26402
G1 X133.705 Y127.15 E10.40136
G1 X130.999 Y127.418 E10.53702
G1 X128.276 Y127.766 E10.67398
G1 X125.575 Y128.191 E10.81039
G1 X122.867 Y128.694 E10.9478
G1 X120.219 Y129.264 E11.08294
G1 X117.579 Y129.911 E11.21855
G1 X114.899 Y130.648 E11.35722
G1 X112.276 Y131.451 E11.49407
G1 X109.681 Y132.326 E11.6307
G1 X107.14 Y133.264 E11.76583
G1 X104.472 Y134.337 E11.9093
G1 X104.007 Y134.532 E11.93446
G1 X103.527 Y134.69 E11.95967
G1 X102.826 Y134.781 E11.99494
G1 X102.313 Y134.79 E12.02053
G1 X101.809 Y134.758 E12.04573
G1 X101.315 Y134.648 E12.07098
G1 X101.072 Y134.563 E12.08382
G1 X100.347 Y134.274 E12.12276
G1 X100.297 Y134.253 E12.12546
G1 X99.199 Y133.793 E12.18486
G1 X96.611 Y132.795 E12.32324
G1 X94.041 Y131.887 E12.45923
G1 X91.448 Y131.051 E12.59515
G1 X88.809 Y130.284 E12.73226
G1 X86.153 Y129.592 E12.86919
G1 X83.466 Y128.97 E13.00679
G1 X80.809 Y128.439 E13.14197
G1 X78.103 Y127.974 E13.27895
G1 X75.384 Y127.586 E13.41598
G1 X72.677 Y127.277 E13.55191
G1 X69.967 Y127.045 E13.6876
G1 X67.224 Y126.89 E13.82467
G1 X64.458 Y126.811 E13.96272
G1 X63.052 Y126.8 E14.03287
G1 X38.907 Y126.8 E15.23747
G1 X38.209 Y126.789 E15.2723
G1 X37.705 Y126.741 E15.29755
G1 X37.216 Y126.614 E15.32276
G1 X36.752 Y126.412 E15.34801
G1 X36.327 Y126.14 E15.37318
G1 X35.949 Y125.803 E15.39845
G1 X35.629 Y125.412 E15.42365
G1 X35.375 Y124.975 E15.44887
G1 X35.192 Y124.503 E15.47413
G1 X35.087 Y124.009 E15.49932
G1 X35.06 Y123.676 E15.51599
G1 X35.051 Y123.345 E15.53251
G1 X35.05 Y123.258 E15.53685
G1 X35.05 Y122.646 E15.56739
G1 X35.01 Y119.849 E15.70694
G1 X34.895 Y117.132 E15.84262
G1 X34.701 Y114.393 E15.97961
G1 X34.415 Y111.53 E16.12315
G1 X34.281 Y110.362 E16.18181
G1 X34.261 Y110.096 E16.19512
G1 X34.251 Y109.768 E16.21149
G1 X34.25 Y109.67 E16.21638
G1 X34.25 Y91.031 E17.14628
G1 X34.259 Y90.366 E17.17946
G1 X34.306 Y89.862 E17.20471
G1 X34.432 Y89.373 E17.22991
G1 X34.633 Y88.909 E17.25514
G1 X34.904 Y88.482 E17.28037
G1 X35.239 Y88.104 E17.30557
G1 X35.63 Y87.783 E17.3308
G1 X36.067 Y87.528 E17.35605
M204 S160
M205 X6 Y6
G1 F2400 E10.85605
;MESH:X1.STL
G0 F2880 X36.067 Y87.36
G0 X34.422 Y87.372
G0 X34.422 Y113.028
G0 X35.21 Y122.414
G0 X38.664 Y122.414
G0 X38.85 Y122.6
M204 S100
M205 X4 Y4
;TYPE:WALL-INNER
G1 F2400 E17.35605
G1 F1200 X166.15 Y122.6 E23.70707
G1 X166.15 Y123 E23.72703
G1 X38.85 Y123 E30.07805
G1 X38.85 Y122.6 E30.098
M204 S160
M205 X6 Y6
G0 F2880 X96.078 Y122.428
G0 X96.05 Y122.2
M204 S100
M205 X4 Y4
;TYPE:WALL-OUTER
G1 F1200 X96.05 Y110.2 E30.69669
G1 X96.05 Y110.125 E30.70043
G1 X96.09 Y110.125 E30.70085
G1 X96.09 Y110.2 E30.70122
G1 X96.15 Y110.2 E30.70237
G1 X96.15 Y122.2 E30.85204
G1 X99.25 Y122.2 E31.0067
G1 X99.25 Y110.2 E31.60538
G1 X99.25 Y110.125 E31.60913
G1 X99.33 Y110.125 E31.61158
G1 X99.33 Y110.2 E31.61233
G1 X99.35 Y110.2
G1 X99.35 Y122.2 E31.762
G1 X102.45 Y122.2 E31.91666
G1 X102.45 Y110.125 E32.51908
G1 X102.55 Y110.125 E32.52407
G1 X102.55 Y122.2 E32.67468
G1 X105.65 Y122.2 E32.82934
G1 X105.65 Y110.2 E33.42802
G1 X105.67 Y110.2 E33.42902
G1 X105.67 Y110.125 E33.43236
G1 X105.75 Y110.125 E33.43492
G1 X105.75 Y110.2 E33.43567
G1 X105.75 Y122.2 E33.58534
G1 X108.85 Y122.2 E33.74
G1 X108.85 Y110.2 E34.33868
G1 X108.91 Y110.2 E34.34167
G1 X108.91 Y110.125 E34.34424
G1 X108.95 Y110.125 E34.34466
G1 X108.95 Y110.2 E34.34503
G1 X108.95 Y122.2 E34.4947
G1 X112.05 Y122.2 E34.64936
G1 X112.05 Y110.2 E35.24804
G1 X112.15 Y110.2 E35.25303
G1 X112.15 Y122.2 E35.4027
G1 X115.25 Y122.2 E35.55736
G1 X115.25 Y110.2 E36.15604
G1 X115.35 Y110.2 E36.16103
G1 X115.35 Y122.2 E36.3107
G1 X118.45 Y122.2 E36.46536
G1 X118.45 Y110.2 E37.06405
G1 X118.55 Y110.2 E37.06903
G1 X118.55 Y122.2 E37.21871
G1 X121.65 Y122.2 E37.37336
G1 X121.65 Y110.2 E37.97205
G1 X121.75 Y110.2 E37.97704
G1 X121.75 Y122.2 E38.12671
G1 X124.85 Y122.2 E38.28137
G1 X124.85 Y110.2 E38.88005
G1 X124.95 Y110.2 E38.88504
G1 X124.95 Y122.2 E39.03471
G1 X128.05 Y122.2 E39.18937
G1 X128.05 Y110.2 E39.78805
G1 X128.15 Y110.2 E39.79304
G1 X128.15 Y122.2 E39.94271
G1 X131.25 Y122.2 E40.09737
G1 X131.25 Y110.2 E40.69605
G1 X131.35 Y110.2 E40.70104
G1 X131.35 Y122.2 E40.85071
G1 X134.45 Y122.2 E41.00537
G1 X134.45 Y110.2 E41.60405
G1 X134.55 Y110.2 E41.60904
G1 X134.55 Y122.2 E41.75871
G1 X137.65 Y122.2 E41.91337
G1 X137.65 Y110.2 E42.51206
G1 X137.75 Y110.2 E42.51704
G1 X137.75 Y122.2 E42.66672
G1 X140.85 Y122.2 E42.82137
G1 X140.85 Y110.2 E43.42006
G1 X140.95 Y110.2 E43.42505
G1 X140.95 Y122.2 E43.57472
G1 X144.05 Y122.2 E43.72938
G1 X144.05 Y110.2 E44.32806
G1 X144.15 Y110.2 E44.33305
G1 X144.15 Y122.2 E44.48272
G1 X147.25 Y122.2 E44.63738
G1 X147.25 Y110.2 E45.23606
G1 X147.35 Y110.2 E45.24105
G1 X147.35 Y122.2 E45.39072
G1 X150.45 Y122.2 E45.54538
G1 X150.45 Y110.2 E46.14406
G1 X150.55 Y110.2 E46.14905
G1 X150.55 Y122.2 E46.29872
G1 X153.65 Y122.2 E46.45338
G1 X153.65 Y110.2 E47.05206
G1 X153.75 Y110.2 E47.05705
G1 X153.75 Y122.2 E47.20672
G1 X156.85 Y122.2 E47.36138
G1 X156.85 Y110.2 E47.96007
G1 X156.95 Y110.2 E47.96505
G1 X156.95 Y122.2 E48.11473
G1 X160.05 Y122.2 E48.26938
G1 X160.05 Y110.2 E48.86807
G1 X160.15 Y110.2 E48.87306
G1 X160.15 Y122.2 E49.02273
G1 X163.25 Y122.2 E49.17739
G1 X163.25 Y110.2 E49.77607
G1 X163.35 Y110.2 E49.78106
G1 X163.35 Y122.2 E49.93073
G1 X166.45 Y122.2 E50.08539
G1 X166.45 Y110.2 E50.68407
G1 X166.55 Y110.2 E50.68906
G1 X166.55 Y122.2 E50.83873
G1 X166.55 Y123.4 E50.8986
G1 X102.55 Y123.4 E54.09157
G1 X102.55 Y131.4 E54.49069
G1 X102.45 Y131.4 E54.49568
G1 X102.45 Y123.4 E54.59546
G1 X38.45 Y123.4 E57.78844
G1 X38.45 Y122.2 E57.8483
G1 X38.45 Y110.2 E58.44699
G1 X38.55 Y110.2 E58.45198
G1 X38.55 Y122.2 E58.60165
G1 X41.65 Y122.2 E58.75631
G1 X41.65 Y110.2 E59.35499
G1 X41.75 Y110.2 E59.35998
G1 X41.75 Y122.2 E59.50965
G1 X44.85 Y122.2 E59.66431
G1 X44.85 Y110.2 E60.26299
G1 X44.95 Y110.2 E60.26798
G1 X44.95 Y122.2 E60.41765
G1 X48.05 Y122.2 E60.57231
G1 X48.05 Y110.2 E61.17099
G1 X48.15 Y110.2 E61.17598
G1 X48.15 Y122.2 E61.32565
G1 X51.25 Y122.2 E61.48031
G1 X51.25 Y110.2 E62.07899
G1 X51.35 Y110.2 E62.08398
G1 X51.35 Y122.2 E62.23365
G1 X54.45 Y122.2 E62.38831
G1 X54.45 Y110.2 E62.98699
G1 X54.55 Y110.2 E62.99198
G1 X54.55 Y122.2 E63.14165
G1 X57.65 Y122.2 E63.29631
G1 X57.65 Y110.2 E63.895
G1 X57.75 Y110.2 E63.89999
G1 X57.75 Y122.2 E64.04966
G1 X60.85 Y122.2 E64.20432
G1 X60.85 Y110.2 E64.803
G1 X60.95 Y110.2 E64.80799
G1 X60.95 Y122.2 E64.95766
G1 X64.05 Y122.2 E65.11232
G1 X64.05 Y110.2 E65.711
G1 X64.15 Y110.2 E65.71599
G1 X64.15 Y122.2 E65.86566
G1 X67.25 Y122.2 E66.02032
G1 X67.25 Y110.2 E66.619
G1 X67.35 Y110.2 E66.62399
G1 X67.35 Y122.2 E66.77366
G1 X70.45 Y122.2 E66.92832
G1 X70.45 Y110.2 E67.527
G1 X70.55 Y110.2 E67.53199
M104 T1 S200
G1 X70.55 Y122.2 E67.68166
G1 X73.65 Y122.2 E67.83632
G1 X73.65 Y110.2 E68.435
G1 X73.75 Y110.2 E68.43999
G1 X73.75 Y122.2 E68.58966
G1 X76.85 Y122.2 E68.74432
G1 X76.85 Y110.2 E69.34301
G1 X76.95 Y110.2 E69.348
G1 X76.95 Y122.2 E69.49767
G1 X80.05 Y122.2 E69.65233
G1 X80.05 Y110.2 E70.25101
G1 X80.15 Y110.2 E70.256
G1 X80.15 Y122.2 E70.40567
G1 X83.25 Y122.2 E70.56033
G1 X83.25 Y110.2 E71.15901
G1 X83.35 Y110.2 E71.164
M104 T1 S190
G1 X83.35 Y122.2 E71.31367
G1 X86.45 Y122.2 E71.46833
G1 X86.45 Y110.2 E72.06701
G1 X86.55 Y110.2 E72.072
G1 X86.55 Y122.2 E72.22167
G1 X89.65 Y122.2 E72.37633
G1 X89.65 Y110.2 E72.97501
G1 X89.75 Y110.2 E72.98
M104 S185
G1 X89.75 Y122.2 E73.12967
G1 X92.85 Y122.2 E73.28433
G1 X92.85 Y110.2 E73.88301
G1 X92.95 Y110.2 E73.888
G1 X92.95 Y122.2 E74.03767
G1 X96.05 Y122.2 E74.19233
M204 S160
M205 X6 Y6
G0 F2880 X96.05 Y122
G0 X96.49 Y122.64
G0 X96.49 Y122.8
G1 F2400 E67.69233
;MESH:X2.STL
G0 F2880 X38.664 Y123.186
G0 X35.21 Y123.186
G0 X-51 Y195.2
G1 F3000 E58.19233
G1 F300 Z2.3
G92 E0
T1
G92 E0
T1
M105
M109 S190
M104 T0 S0
G1 F2400 E-6.5
G0 F2880 X185 Y195.2 Z2.3
G0 X167.508 Y127.108
M104 S200
M204 S100
M205 X4 Y4
;TYPE:SKIRT
G1 F300 Z0.3
G1 F2400 E0
G1 F1200 X166.841 Y127.19 E0.03353
G1 X166.521 Y127.199 E0.0495
G1 X166.42 Y127.2 E0.05454
G1 X141.971 Y127.2 E1.2743
G1 X139.19 Y127.239 E1.41306
G1 X136.462 Y127.355 E1.54928
G1 X133.733 Y127.549 E1.68578
G1 X131.056 Y127.814 E1.81999
G1 X128.317 Y128.164 E1.95775
G1 X125.639 Y128.585 E2.093
G1 X122.953 Y129.085 E2.2293
G1 X120.301 Y129.655 E2.36463
G1 X117.667 Y130.302 E2.49995
G1 X115.017 Y131.03 E2.63706
G1 X112.416 Y131.826 E2.77276
G1 X109.843 Y132.694 E2.90824
G1 X107.249 Y133.651 E3.04618
G1 X104.653 Y134.695 E3.18577
G1 X104.162 Y134.901 E3.21234
G1 X103.653 Y135.071 E3.23911
G1 X103.125 Y135.163 E3.26585
G1 X102.833 Y135.18 E3.28044
G1 X102.32 Y135.189 E3.30604
G1 X101.785 Y135.159 E3.33277
G1 X101.26 Y135.049 E3.35954
G1 X100.924 Y134.934 E3.37725
G1 X100.199 Y134.645 E3.41619
G1 X100.142 Y134.622 E3.41926
G1 X99.036 Y134.159 E3.47908
G1 X96.471 Y133.17 E3.61623
G1 X93.933 Y132.272 E3.75054
G1 X91.31 Y131.427 E3.88803
G1 X88.711 Y130.672 E4.02305
G1 X86.033 Y129.974 E4.16112
G1 X83.401 Y129.365 E4.2959
G1 X80.728 Y128.83 E4.4319
G1 X78.051 Y128.37 E4.56742
G1 X75.354 Y127.986 E4.70333
G1 X72.634 Y127.675 E4.83991
G1 X69.911 Y127.442 E4.97626
G1 X67.224 Y127.29 E5.11053
G1 X64.444 Y127.211 E5.24928
G1 X63.049 Y127.2 E5.31888
G1 X38.9 Y127.2 E6.52368
G1 X38.202 Y127.189 E6.55851
G1 X37.668 Y127.14 E6.58526
G1 X37.147 Y127.013 E6.61201
G1 X36.651 Y126.81 E6.63875
G1 X36.19 Y126.535 E6.66553
G1 X35.776 Y126.195 E6.69226
G1 X35.416 Y125.797 E6.71903
G1 X35.119 Y125.351 E6.74577
G1 X34.893 Y124.865 E6.77251
G1 X34.74 Y124.35 E6.79931
G1 X34.66 Y123.687 E6.83263
G1 X34.651 Y123.356 E6.84915
G1 X34.65 Y123.258 E6.85403
G1 X34.65 Y122.652 E6.88427
G1 X34.611 Y119.871 E7.02303
G1 X34.495 Y117.143 E7.15925
G1 X34.302 Y114.425 E7.29519
G1 X34.022 Y111.622 E7.43573
G1 X33.883 Y110.408 E7.49669
G1 X33.862 Y110.108 E7.5117
G1 X33.852 Y109.78 E7.52807
G1 X33.85 Y109.67 E7.53356
G1 X33.85 Y91.025 E8.46376
G1 X33.859 Y90.36 E8.49694
G1 X33.907 Y89.826 E8.52369
G1 X34.033 Y89.305 E8.55043
G1 X34.235 Y88.808 E8.5772
G1 X34.508 Y88.347 E8.60393
G1 X34.847 Y87.931 E8.6307
G1 X35.244 Y87.571 E8.65744
G1 X35.691 Y87.273 E8.68424
G1 X36.176 Y87.045 E8.71098
G1 X36.69 Y86.892 E8.73773
G1 X37.466 Y86.809 E8.77667
G1 X37.947 Y86.81 E8.80066
G1 X38.487 Y86.852 E8.82769
G1 X38.877 Y86.912 E8.84737
G1 X41.625 Y87.304 E8.98586
G1 X44.338 Y87.612 E9.12208
G1 X47.059 Y87.844 E9.25832
G1 X49.754 Y87.998 E9.393
G1 X52.516 Y88.077 E9.53085
G1 X55.211 Y88.077 E9.6653
G1 X57.978 Y88 E9.8034
G1 X60.667 Y87.848 E9.93777
G1 X63.387 Y87.618 E10.07396
G1 X66.091 Y87.311 E10.20973
G1 X69.344 Y86.846 E10.37367
G1 X69.853 Y86.81 E10.39913
G1 X70.34 Y86.81 E10.42343
G1 X70.64 Y86.823 E10.43841
G1 X73.358 Y87.051 E10.57448
G1 X76.057 Y87.202 E10.70935
G1 X78.826 Y87.279 E10.84755
G1 X81.52 Y87.277 E10.98195
G1 X84.282 Y87.198 E11.11981
G1 X86.977 Y87.043 E11.25448
G1 X89.694 Y86.811 E11.39053
G1 X92.415 Y86.5 E11.52716
G1 X95.113 Y86.115 E11.66313
G1 X97.791 Y85.655 E11.79869
G1 X100.296 Y85.132 E11.92636
G1 X100.321 Y85.127 E11.92763
G1 X101.543 Y84.881 E11.98982
G1 X102.135 Y84.812 E12.01956
G1 X102.287 Y84.807 E12.02714
G1 X102.458 Y84.805 E12.03568
G1 X102.796 Y84.81 E12.05254
G1 X103.498 Y84.89 E12.08779
G1 X104.579 Y85.122 E12.14295
G1 X107.276 Y85.662 E12.28017
G1 X109.957 Y86.121 E12.41588
G1 X112.653 Y86.504 E12.55173
G1 X115.363 Y86.811 E12.6878
G1 X118.092 Y87.043 E12.82444
G1 X120.778 Y87.195 E12.95866
G1 X123.545 Y87.272 E13.09676
G1 X126.241 Y87.272 E13.23126
G1 X129.007 Y87.193 E13.36931
G1 X131.697 Y87.04 E13.50374
G1 X133.171 Y86.924 E13.5775
G1 X134.333 Y86.824 E13.63569
G1 X134.634 Y86.811 E13.65072
G1 X135.134 Y86.81 E13.67566
G1 X135.69 Y86.852 E13.70348
G1 X136.105 Y86.916 E13.72443
G1 X138.825 Y87.304 E13.86151
G1 X141.538 Y87.612 E13.99773
G1 X144.259 Y87.844 E14.13397
G1 X146.954 Y87.998 E14.26865
G1 X149.716 Y88.077 E14.4065
G1 X152.411 Y88.077 E14.54095
G1 X155.178 Y88 E14.67905
