;FLAVOR:Marlin
;TIME:258
;Filament used: 0.0741921m, 0.0771345m
;Layer height: 0.1
;MINX:-51
;MINY:41.35
;MINZ:0.3
;MAXX:185
;MAXY:195.2
;MAXZ:2.3
;Generated with Cura_SteamEngine 4.4.0
T0
M140 S60
M105
M190 S60
M104 S200
M104 T1 S175
M105
M109 S200
M105
M109 T1 S175
M82 ;absolute extrusion mode
M605 S0
G21
G90
M82
M107
G28
T1
G92 E0
G1 E16 F210
G92 E0
T0
G92 E0
G1 E16 F210
G92 E0
M117

G92 E0
T0
G92 E0
G1 F2400 E-6.5
;LAYER_COUNT:1
;LAYER:0
M107
M204 S160
M205 X6 Y6
G1 F300 Z2.3
G0 F2880 X86.088 Y44.252 Z2.3
M204 S100
M205 X4 Y4
;TYPE:SKIRT
G1 F300 Z0.3
G1 F2400 E0
G1 F1200 X86.361 Y43.826 E0.02524
G1 X86.697 Y43.448 E0.05047
G1 X87.089 Y43.129 E0.07569
G1 X87.526 Y42.874 E0.10093
G1 X87.997 Y42.692 E0.12612
G1 X88.492 Y42.587 E0.15137
G1 X88.821 Y42.56 E0.16784
G1 X89.14 Y42.551 E0.18376
G1 X89.23 Y42.55 E0.18825
G1 X89.854 Y42.55 E0.21938
G1 X92.651 Y42.51 E0.35894
G1 X95.368 Y42.395 E0.49461
G1 X98.106 Y42.201 E0.63155
G1 X100.952 Y41.917 E0.77425
G1 X102.138 Y41.781 E0.8338
G1 X102.404 Y41.761 E0.84711
G1 X102.732 Y41.751 E0.86348
G1 X102.83 Y41.75 E0.86837
G1 X121.439 Y41.75 E1.79678
G1 X122.137 Y41.76 E1.83161
G1 X122.64 Y41.807 E1.85681
G1 X123.13 Y41.933 E1.88205
G1 X123.594 Y42.135 E1.9073
G1 X124.02 Y42.407 E1.93251
G1 X124.398 Y42.742 E1.95771
G1 X124.718 Y43.133 E1.98292
G1 X124.973 Y43.57 E2.00816
G1 X125.156 Y44.041 E2.03337
G1 X125.263 Y44.535 E2.05859
G1 X125.291 Y44.967 E2.08019
G1 X125.29 Y45.447 E2.10414
G1 X125.253 Y45.927 E2.12815
G1 X125.187 Y46.356 E2.14981
G1 X124.797 Y49.09 E2.28759
G1 X124.489 Y51.795 E2.42341
G1 X124.259 Y54.503 E2.559
G1 X124.102 Y57.254 E2.69647
G1 X124.023 Y60.005 E2.83378
G1 X124.023 Y62.724 E2.96943
G1 X124.1 Y65.475 E3.10673
G1 X124.253 Y68.19 E3.2424
G1 X124.485 Y70.93 E3.37959
G1 X124.795 Y73.655 E3.51641
G1 X125.258 Y76.896 E3.67975
G1 X125.29 Y77.349 E3.70241
G1 X125.29 Y77.84 E3.7269
G1 X125.279 Y78.107 E3.74024
G1 X125.05 Y80.839 E3.87701
G1 X124.898 Y83.561 E4.01303
G1 X124.821 Y86.314 E4.15043
G1 X124.823 Y89.032 E4.28603
G1 X124.902 Y91.783 E4.42333
G1 X125.06 Y94.533 E4.56076
G1 X125.291 Y97.241 E4.69635
G1 X125.6 Y99.941 E4.83193
G1 X125.99 Y102.671 E4.96952
G1 X126.455 Y105.378 E5.10655
G1 X126.953 Y107.765 E5.2282
G1 X126.957 Y107.785 E5.22922
G1 X127.226 Y109.115 E5.29691
G1 X127.29 Y109.749 E5.32871
G1 X127.29 Y110.241 E5.35325
G1 X127.219 Y110.913 E5.38696
G1 X126.983 Y112.012 E5.44304
G1 X126.436 Y114.742 E5.58195
G1 X125.985 Y117.387 E5.71582
G1 X125.601 Y120.088 E5.85192
G1 X125.288 Y122.853 E5.99075
G1 X125.059 Y125.538 E6.12519
G1 X124.905 Y128.282 E6.26231
G1 X124.828 Y131.033 E6.39961
G1 X124.828 Y133.752 E6.53526
G1 X124.907 Y136.508 E6.67281
G1 X125.062 Y139.248 E6.80973
G1 X125.176 Y140.689 E6.88185
G1 X125.277 Y141.866 E6.94078
G1 X125.289 Y142.134 E6.95417
G1 X125.29 Y142.635 E6.97916
G1 X125.253 Y143.129 E7.00388
G1 X125.187 Y143.557 E7.02548
G1 X124.797 Y146.29 E7.16322
G1 X124.489 Y148.995 E7.29904
G1 X124.259 Y151.703 E7.43463
G1 X124.102 Y154.454 E7.5721
G1 X124.023 Y157.205 E7.70941
G1 X124.023 Y159.924 E7.84506
G1 X124.1 Y162.675 E7.98236
G1 X124.253 Y165.39 E8.11803
G1 X124.485 Y168.13 E8.25521
G1 X124.795 Y170.855 E8.39204
G1 X125.258 Y174.096 E8.55538
G1 X125.29 Y174.549 E8.57803
G1 X125.29 Y175.039 E8.60248
G1 X125.25 Y175.543 E8.6277
G1 X125.131 Y176.034 E8.65291
G1 X124.937 Y176.501 E8.67814
G1 X124.671 Y176.931 E8.70336
G1 X124.341 Y177.314 E8.72859
G1 X123.954 Y177.64 E8.75383
G1 X123.521 Y177.901 E8.77905
G1 X123.053 Y178.091 E8.80425
G1 X122.56 Y178.204 E8.82949
G1 X122.2 Y178.237 E8.84752
G1 X121.88 Y178.248 E8.8635
G1 X121.77 Y178.25 E8.86899
G1 X103.161 Y178.25 E9.79739
G1 X102.464 Y178.24 E9.83217
G1 X102.153 Y178.22 E9.84772
G1 X99.507 Y177.923 E9.98056
G1 X96.811 Y177.694 E10.11554
G1 X94.064 Y177.538 E10.25281
G1 X91.302 Y177.46 E10.39067
G1 X89.589 Y177.45 E10.47613
G1 X89.561 Y177.45 E10.47753
G1 X88.863 Y177.44 E10.51235
G1 X88.36 Y177.393 E10.53756
G1 X87.87 Y177.267 E10.5628
G1 X87.406 Y177.065 E10.58805
G1 X86.98 Y176.793 E10.61326
G1 X86.602 Y176.458 E10.63846
G1 X86.282 Y176.067 E10.66367
G1 X86.027 Y175.63 E10.68891
G1 X85.844 Y175.159 E10.71412
G1 X85.737 Y174.665 E10.73934
G1 X85.71 Y174.327 E10.75625
G1 X85.701 Y173.995 E10.77282
G1 X85.7 Y173.908 E10.77716
G1 X85.7 Y149.465 E11.99663
G1 X85.66 Y146.667 E12.13624
G1 X85.545 Y143.95 E12.27191
G1 X85.35 Y141.204 E12.40925
G1 X85.082 Y138.498 E12.54492
G1 X84.734 Y135.776 E12.68182
G1 X84.309 Y133.075 E12.81824
G1 X83.806 Y130.367 E12.95565
G1 X83.241 Y127.743 E13.08956
G1 X82.577 Y125.031 E13.22886
G1 X81.859 Y122.422 E13.36386
G1 X81.049 Y119.776 E13.50192
G1 X80.174 Y117.181 E13.63855
G1 X79.236 Y114.64 E13.77368
G1 X78.179 Y112.012 E13.915
G1 X77.958 Y111.483 E13.9436
G1 X77.801 Y111.002 E13.96884
G1 X77.711 Y110.256 E14.00633
G1 X77.71 Y109.767 E14.03073
G1 X77.749 Y109.262 E14.056
G1 X77.936 Y108.579 E14.09133
G1 X78.225 Y107.851 E14.1304
G1 X78.247 Y107.797 E14.13331
G1 X78.707 Y106.699 E14.1927
G1 X79.705 Y104.111 E14.33109
G1 X80.613 Y101.541 E14.46707
G1 X81.449 Y98.948 E14.603
G1 X82.216 Y96.309 E14.7401
G1 X82.908 Y93.653 E14.87704
G1 X83.53 Y90.966 E15.01464
G1 X84.061 Y88.309 E15.14982
G1 X84.526 Y85.603 E15.2868
G1 X84.914 Y82.884 E15.42382
G1 X85.223 Y80.177 E15.55975
G1 X85.455 Y77.467 E15.69545
G1 X85.61 Y74.724 E15.83252
G1 X85.69 Y71.935 E15.97172
G1 X85.7 Y70.552 E16.04072
G1 X85.7 Y46.397 E17.24582
G1 X85.711 Y45.708 E17.28019
G1 X85.759 Y45.205 E17.3054
G1 X85.886 Y44.715 E17.33066
G1 X86.088 Y44.252 E17.35586
M204 S160
M205 X6 Y6
G1 F2400 E10.85586
;MESH:Y1.STL
G0 F2880 X89.314 Y46.164
G0 X89.9 Y46.35
M204 S100
M205 X4 Y4
;TYPE:WALL-INNER
G1 F2400 E17.35586
G1 F1200 X89.9 Y173.65 E23.70688
G1 X89.5 Y173.65 E23.72684
G1 X89.5 Y46.35 E30.07786
G1 X89.9 Y46.35 E30.09782
M204 S160
M205 X6 Y6
G0 F2880 X90.072 Y100.378
G0 X90.3 Y100.45
M204 S100
M205 X4 Y4
;TYPE:WALL-OUTER
G1 F1200 X90.3 Y103.55 E30.25248
G1 X102.3 Y103.55 E30.85116
G1 X102.375 Y103.55 E30.8549
G1 X102.375 Y103.59 E30.85532
G1 X102.3 Y103.59 E30.85569
G1 X102.3 Y103.65 E30.85684
G1 X90.3 Y103.65 E31.00651
G1 X90.3 Y106.75 E31.16117
G1 X102.3 Y106.75 E31.75986
G1 X102.375 Y106.75 E31.7636
G1 X102.375 Y106.83 E31.76605
G1 X102.3 Y106.83 E31.7668
G1 X102.3 Y106.85
G1 X90.3 Y106.85 E31.91647
G1 X90.3 Y109.95 E32.07113
G1 X102.375 Y109.95 E32.67356
G1 X102.375 Y110.05 E32.67854
G1 X90.3 Y110.05 E32.82915
G1 X90.3 Y113.15 E32.98381
G1 X102.3 Y113.15 E33.58249
G1 X102.3 Y113.17 E33.58349
G1 X102.375 Y113.17 E33.58683
G1 X102.375 Y113.25 E33.58939
G1 X102.3 Y113.25 E33.59014
G1 X90.3 Y113.25 E33.73981
G1 X90.3 Y116.35 E33.89447
G1 X102.3 Y116.35 E34.49315
G1 X102.3 Y116.41 E34.49614
G1 X102.375 Y116.41 E34.49871
G1 X102.375 Y116.45 E34.49913
G1 X102.3 Y116.45 E34.4995
G1 X90.3 Y116.45 E34.64917
G1 X90.3 Y119.55 E34.80383
G1 X102.3 Y119.55 E35.40251
G1 X102.3 Y119.65 E35.4075
G1 X90.3 Y119.65 E35.55717
G1 X90.3 Y122.75 E35.71183
G1 X102.3 Y122.75 E36.31052
G1 X102.3 Y122.85 E36.3155
G1 X90.3 Y122.85 E36.46518
G1 X90.3 Y125.95 E36.61983
G1 X102.3 Y125.95 E37.21852
G1 X102.3 Y126.05 E37.22351
G1 X90.3 Y126.05 E37.37318
G1 X90.3 Y129.15 E37.52784
G1 X102.3 Y129.15 E38.12652
G1 X102.3 Y129.25 E38.13151
G1 X90.3 Y129.25 E38.28118
G1 X90.3 Y132.35 E38.43584
G1 X102.3 Y132.35 E39.03452
G1 X102.3 Y132.45 E39.03951
G1 X90.3 Y132.45 E39.18918
G1 X90.3 Y135.55 E39.34384
G1 X102.3 Y135.55 E39.94252
G1 X102.3 Y135.65 E39.94751
G1 X90.3 Y135.65 E40.09718
G1 X90.3 Y138.75 E40.25184
G1 X102.3 Y138.75 E40.85052
G1 X102.3 Y138.85 E40.85551
G1 X90.3 Y138.85 E41.00518
G1 X90.3 Y141.95 E41.15984
G1 X102.3 Y141.95 E41.75853
G1 X102.3 Y142.05 E41.76351
G1 X90.3 Y142.05 E41.91319
G1 X90.3 Y145.15 E42.06784
G1 X102.3 Y145.15 E42.66653
G1 X102.3 Y145.25 E42.67152
G1 X90.3 Y145.25 E42.82119
G1 X90.3 Y148.35 E42.97585
G1 X102.3 Y148.35 E43.57453
G1 X102.3 Y148.45 E43.57952
G1 X90.3 Y148.45 E43.72919
G1 X90.3 Y151.55 E43.88385
G1 X102.3 Y151.55 E44.48253
G1 X102.3 Y151.65 E44.48752
G1 X90.3 Y151.65 E44.63719
G1 X90.3 Y154.75 E44.79185
G1 X102.3 Y154.75 E45.39053
G1 X102.3 Y154.85 E45.39552
G1 X90.3 Y154.85 E45.54519
G1 X90.3 Y157.95 E45.69985
G1 X102.3 Y157.95 E46.29853
G1 X102.3 Y158.05 E46.30352
G1 X90.3 Y158.05 E46.45319
G1 X90.3 Y161.15 E46.60785
G1 X102.3 Y161.15 E47.20654
G1 X102.3 Y161.25 E47.21152
G1 X90.3 Y161.25 E47.3612
G1 X90.3 Y164.35 E47.51586
G1 X102.3 Y164.35 E48.11454
G1 X102.3 Y164.45 E48.11953
G1 X90.3 Y164.45 E48.2692
G1 X90.3 Y167.55 E48.42386
G1 X102.3 Y167.55 E49.02254
G1 X102.3 Y167.65 E49.02753
G1 X90.3 Y167.65 E49.1772
G1 X90.3 Y170.75 E49.33186
G1 X102.3 Y170.75 E49.93054
G1 X102.3 Y170.85 E49.93553
G1 X90.3 Y170.85 E50.0852
G1 X90.3 Y173.95 E50.23986
G1 X102.3 Y173.95 E50.83854
G1 X102.3 Y174.05 E50.84353
G1 X90.3 Y174.05 E50.9932
G1 X89.1 Y174.05 E51.05307
G1 X89.1 Y110.05 E54.24604
G1 X81.1 Y110.05 E54.64517
G1 X81.1 Y109.95 E54.65015
G1 X89.1 Y109.95 E54.74993
G1 X89.1 Y45.95 E57.94291
G1 X90.3 Y45.95 E58.00278
G1 X102.3 Y45.95 E58.60146
G1 X102.3 Y46.05 E58.60645
G1 X90.3 Y46.05 E58.75612
G1 X90.3 Y49.15 E58.91078
G1 X102.3 Y49.15 E59.50946
G1 X102.3 Y49.25 E59.51445
G1 X90.3 Y49.25 E59.66412
G1 X90.3 Y52.35 E59.81878
G1 X102.3 Y52.35 E60.41746
G1 X102.3 Y52.45 E60.42245
G1 X90.3 Y52.45 E60.57212
G1 X90.3 Y55.55 E60.72678
G1 X102.3 Y55.55 E61.32546
G1 X102.3 Y55.65 E61.33045
G1 X90.3 Y55.65 E61.48012
G1 X90.3 Y58.75 E61.63478
G1 X102.3 Y58.75 E62.23346
G1 X102.3 Y58.85 E62.23845
G1 X90.3 Y58.85 E62.38812
G1 X90.3 Y61.95 E62.54278
G1 X102.3 Y61.95 E63.14147
G1 X102.3 Y62.05 E63.14646
G1 X90.3 Y62.05 E63.29613
G1 X90.3 Y65.15 E63.45079
G1 X102.3 Y65.15 E64.04947
G1 X102.3 Y65.25 E64.05446
G1 X90.3 Y65.25 E64.20413
G1 X90.3 Y68.35 E64.35879
G1 X102.3 Y68.35 E64.95747
G1 X102.3 Y68.45 E64.96246
G1 X90.3 Y68.45 E65.11213
G1 X90.3 Y71.55 E65.26679
G1 X102.3 Y71.55 E65.86547
G1 X102.3 Y71.65 E65.87046
G1 X90.3 Y71.65 E66.02013
G1 X90.3 Y74.75 E66.17479
G1 X102.3 Y74.75 E66.77347
G1 X102.3 Y74.85 E66.77846
G1 X90.3 Y74.85 E66.92813
G1 X90.3 Y77.95 E67.08279
G1 X102.3 Y77.95 E67.68147
G1 X102.3 Y78.05 E67.68646
M104 T1 S200
G1 X90.3 Y78.05 E67.83613
G1 X90.3 Y81.15 E67.99079
G1 X102.3 Y81.15 E68.58948
G1 X102.3 Y81.25 E68.59447
G1 X90.3 Y81.25 E68.74414
G1 X90.3 Y84.35 E68.8988
G1 X102.3 Y84.35 E69.49748
G1 X102.3 Y84.45 E69.50247
G1 X90.3 Y84.45 E69.65214
G1 X90.3 Y87.55 E69.8068
G1 X102.3 Y87.55 E70.40548
G1 X102.3 Y87.65 E70.41047
G1 X90.3 Y87.65 E70.56014
M104 T1 S190
G1 X90.3 Y90.75 E70.7148
G1 X102.3 Y90.75 E71.31348
G1 X102.3 Y90.85 E71.31847
G1 X90.3 Y90.85 E71.46814
G1 X90.3 Y93.95 E71.6228
G1 X102.3 Y93.95 E72.22148
G1 X102.3 Y94.05 E72.22647
G1 X90.3 Y94.05 E72.37614
G1 X90.3 Y97.15 E72.5308
G1 X102.3 Y97.15 E73.12949
G1 X102.3 Y97.25 E73.13447
M104 S185
G1 X90.3 Y97.25 E73.28414
G1 X90.3 Y100.35 E73.4388
G1 X102.3 Y100.35 E74.03749
G1 X102.3 Y100.45 E74.04248
G1 X90.3 Y100.45 E74.19215
M204 S160
M205 X6 Y6
G0 F2880 X90.3 Y100.65
G0 X89.86 Y100.65
G0 X89.7 Y100.65
G1 F2400 E67.69215
;MESH:Y2.STL
G0 F2880 X89.314 Y109.964
G0 X85.872 Y113.278
G0 X-51 Y195.2
G1 F3000 E58.19215
G1 F300 Z2.3
G92 E0
T1
G92 E0
T1
M105
M109 S190
M104 T0 S0
G1 F2400 E-6.5
G0 F2880 X185 Y195.2 Z2.3
G0 X125.531 Y176.097
M104 S200
M204 S100
M205 X4 Y4
;TYPE:SKIRT
G1 F300 Z0.3
G1 F2400 E0
G1 F1200 X125.336 Y176.596 E0.02673
G1 X125.068 Y177.061 E0.0535
G1 X124.735 Y177.481 E0.08025
G1 X124.343 Y177.847 E0.107
G1 X123.901 Y178.15 E0.13374
G1 X123.418 Y178.385 E0.16053
G1 X122.907 Y178.545 E0.18725
G1 X122.214 Y178.637 E0.22213
G1 X121.894 Y178.648 E0.2381
G1 X121.77 Y178.65 E0.24429
G1 X103.155 Y178.65 E1.17299
G1 X102.458 Y178.64 E1.20777
G1 X102.109 Y178.618 E1.22522
G1 X99.465 Y178.321 E1.35796
G1 X96.758 Y178.091 E1.4935
G1 X94.065 Y177.938 E1.62807
G1 X91.289 Y177.86 E1.76662
G1 X89.587 Y177.85 E1.85153
G1 X89.555 Y177.85 E1.85313
G1 X88.857 Y177.84 E1.88796
G1 X88.323 Y177.792 E1.9147
G1 X87.802 Y177.666 E1.94145
G1 X87.305 Y177.463 E1.96823
G1 X86.844 Y177.189 E1.99499
G1 X86.429 Y176.85 E2.02172
G1 X86.069 Y176.452 E2.04849
G1 X85.772 Y176.006 E2.07523
G1 X85.544 Y175.52 E2.10201
G1 X85.392 Y175.006 E2.12875
G1 X85.31 Y174.338 E2.16233
G1 X85.301 Y174.006 E2.1789
G1 X85.3 Y173.908 E2.18379
G1 X85.3 Y149.471 E3.40295
G1 X85.261 Y146.69 E3.54171
G1 X85.145 Y143.961 E3.67798
G1 X84.951 Y141.232 E3.81448
G1 X84.686 Y138.555 E3.94869
G1 X84.336 Y135.817 E4.0864
G1 X83.915 Y133.139 E4.22165
G1 X83.417 Y130.46 E4.35759
G1 X82.853 Y127.843 E4.49115
G1 X82.188 Y125.127 E4.63066
G1 X81.468 Y122.508 E4.76617
G1 X80.674 Y119.916 E4.90141
G1 X79.806 Y117.343 E5.03689
G1 X78.846 Y114.742 E5.17521
G1 X77.81 Y112.166 E5.31373
G1 X77.589 Y111.637 E5.34233
G1 X77.42 Y111.128 E5.36909
G1 X77.328 Y110.6 E5.39583
G1 X77.311 Y110.256 E5.41301
G1 X77.31 Y109.767 E5.43741
G1 X77.349 Y109.232 E5.46417
G1 X77.467 Y108.709 E5.49092
G1 X77.564 Y108.432 E5.50556
G1 X77.853 Y107.704 E5.54464
G1 X77.878 Y107.642 E5.54797
G1 X78.341 Y106.536 E5.60779
G1 X79.33 Y103.971 E5.74494
G1 X80.228 Y101.433 E5.87926
G1 X81.073 Y98.81 E6.01674
G1 X81.828 Y96.211 E6.15177
G1 X82.526 Y93.533 E6.28984
G1 X83.135 Y90.901 E6.42462
G1 X83.67 Y88.228 E6.56062
G1 X84.13 Y85.551 E6.69613
G1 X84.514 Y82.854 E6.83204
G1 X84.825 Y80.134 E6.96863
G1 X85.058 Y77.411 E7.10497
G1 X85.21 Y74.724 E7.23924
G1 X85.29 Y71.924 E7.37899
G1 X85.3 Y70.549 E7.44759
G1 X85.3 Y46.391 E8.65284
G1 X85.311 Y45.702 E8.68722
G1 X85.36 Y45.167 E8.71402
G1 X85.487 Y44.646 E8.74078
G1 X85.69 Y44.15 E8.76752
G1 X85.965 Y43.69 E8.79425
G1 X86.305 Y43.275 E8.82102
G1 X86.703 Y42.915 E8.84779
G1 X87.15 Y42.619 E8.87454
G1 X87.636 Y42.392 E8.9013
G1 X88.15 Y42.24 E8.92804
G1 X88.809 Y42.16 E8.96116
G1 X89.128 Y42.151 E8.97708
G1 X89.23 Y42.15 E8.98217
G1 X89.848 Y42.15 E9.013
G1 X92.629 Y42.111 E9.15176
G1 X95.357 Y41.995 E9.28799
G1 X98.074 Y41.802 E9.42388
G1 X100.878 Y41.522 E9.56447
G1 X102.092 Y41.383 E9.62543
G1 X102.392 Y41.362 E9.64043
G1 X102.72 Y41.352 E9.6568
G1 X102.83 Y41.35 E9.66229
G1 X121.445 Y41.35 E10.591
G1 X122.143 Y41.36 E10.62583
G1 X122.677 Y41.408 E10.65258
G1 X123.198 Y41.534 E10.67932
G1 X123.695 Y41.737 E10.7061
G1 X124.156 Y42.011 E10.73286
G1 X124.571 Y42.35 E10.75959
G1 X124.931 Y42.748 E10.78636
G1 X125.228 Y43.194 E10.8131
G1 X125.456 Y43.68 E10.83988
G1 X125.608 Y44.194 E10.86662
G1 X125.691 Y44.967 E10.90541
G1 X125.69 Y45.447 E10.92936
G1 X125.648 Y45.987 E10.95638
G1 X125.582 Y46.416 E10.97803
G1 X125.196 Y49.125 E11.11455
G1 X124.888 Y51.838 E11.25077
G1 X124.656 Y54.559 E11.38702
G1 X124.502 Y57.254 E11.52169
G1 X124.423 Y60.016 E11.65954
G1 X124.423 Y62.712 E11.79405
G1 X124.5 Y65.479 E11.93215
G1 X124.652 Y68.167 E12.06646
G1 X124.882 Y70.887 E12.20265
G1 X125.189 Y73.585 E12.33812
G1 X125.654 Y76.839 E12.50211
G1 X125.69 Y77.349 E12.52762
G1 X125.69 Y77.84 E12.55212
G1 X125.677 Y78.14 E12.5671
G1 X125.449 Y80.858 E12.70318
G1 X125.298 Y83.557 E12.83804
G1 X125.221 Y86.326 E12.97624
G1 X125.223 Y89.02 E13.11064
G1 X125.302 Y91.783 E13.24855
G1 X125.457 Y94.477 E13.38317
G1 X125.689 Y97.194 E13.51922
G1 X126 Y99.915 E13.65585
G1 X126.385 Y102.613 E13.79182
G1 X126.844 Y105.285 E13.92708
G1 X127.345 Y107.683 E14.0493
G1 X127.35 Y107.705 E14.05043
G1 X127.619 Y109.035 E14.11812
G1 X127.69 Y109.749 E14.15392
G1 X127.69 Y110.241 E14.17847
G1 X127.61 Y110.997 E14.21639
G1 X127.374 Y112.096 E14.27247
G1 X126.836 Y114.784 E14.40924
G1 X126.377 Y117.475 E14.54543
G1 X125.995 Y120.158 E14.68064
G1 X125.689 Y122.863 E14.81645
